X:79
T: Graf Friedrich
N: Q0048E
O: Mitteleuropa, Deutschland (BRD) , Hessen - Nassau, Eitelborn
R: Ballade, Hochzeit, Mord / Unfall, Tod
M: 6/8
L: 1/16
K: C
CE | G2A2G2D2E2F2 | G2E8
CE | G2A2G2D2E2F2 | G2E8
C2 | A3AA2G2A2B2 | c2B2A2G4
cc | G2A2G2F2E2F2 | A2G2F2E4

